lib/preview/nrk-logo-preview-nrk-nyheter-title-below.svg

<svg width="64" height="35" viewBox="0 0 64 35" fill="currentColor" xmlns="http://www.w3.org/2000/svg">
<path d="M0 13V1.00109H3.93719V13H0ZM9.29381 2.91078L11.5581 13H7.24917L4.54549 1.00109H6.96218C7.51635 0.993898 8.05406 1.18925 8.4745 1.55039C8.89562 1.89638 9.18495 2.3767 9.29381 2.91078ZM12.1495 13V1.00109H16.0867V13H12.1495ZM19.0605 5.5641C18.6362 5.56824 18.2188 5.45723 17.8525 5.24296C17.4912 5.03412 17.1911 4.73396 16.9823 4.3726C16.7678 4.00633 16.6568 3.58876 16.661 3.16432C16.6561 2.74246 16.7672 2.32738 16.9823 1.96443C17.1933 1.60699 17.4931 1.31009 17.8525 1.10252C18.2189 0.888502 18.6362 0.777515 19.0605 0.781384C19.4822 0.776842 19.8971 0.887929 20.2602 1.10252C20.616 1.31191 20.9127 1.60856 21.122 1.96443C21.3368 2.32748 21.4479 2.74249 21.4433 3.16432C21.4473 3.58873 21.3363 4.00623 21.122 4.3726C20.9149 4.73238 20.6179 5.03228 20.2602 5.24296C19.8971 5.45798 19.4819 5.56909 19.0599 5.5641H19.0605ZM22.0516 13V1.00109H25.9892V13H22.0516ZM30.9737 7.55823C30.9848 7.56988 31.0693 7.70788 31.2272 7.97227C31.3851 8.23666 31.5906 8.57468 31.8439 8.98629C32.0974 9.39771 32.3649 9.83426 32.6463 10.296C32.9278 10.7577 33.1926 11.1944 33.4408 11.6058C33.6881 12.0172 33.9697 12.4819 34.2857 13H29.9598C29.6893 12.5606 29.4441 12.1635 29.2245 11.8086C29.0048 11.4537 28.7713 11.0706 28.5238 10.6594C28.2758 10.2485 28.0306 9.84854 27.7882 9.45947C27.5458 9.07039 27.3375 8.72961 27.1633 8.43706C26.9883 8.14432 26.8671 7.94712 26.7997 7.84554C26.6325 7.59344 26.5336 7.30229 26.5127 7.00054C26.5294 6.71094 26.6226 6.43098 26.7828 6.18911C26.8504 6.07645 26.9743 5.87643 27.1545 5.58913C27.3348 5.30183 27.546 4.96105 27.7882 4.56672C28.0304 4.17239 28.2756 3.7696 28.5238 3.35837C28.772 2.94715 29.0056 2.56124 29.2245 2.20071C29.4445 1.84055 29.6897 1.44059 29.9598 1.00081H34.2857L30.9396 6.4595C30.8361 6.62157 30.7777 6.80835 30.7706 7.00054C30.7818 7.20232 30.8522 7.39632 30.9731 7.55823H30.9737Z"/>
<path d="M8.59564 27.2816L1.37601 18.1429H0V30.1548H1.59685V21.0111L8.83377 30.1548H10.2097V18.1429H8.59592L8.59564 27.2816Z"/>
<path d="M18.6524 21.6112L18.6392 27.947C18.5154 28.0189 18.392 28.088 18.2711 28.15C18.0647 28.2559 17.8519 28.349 17.6341 28.4289C17.4277 28.5056 17.2144 28.5623 16.997 28.5981C16.7752 28.6329 16.5509 28.6499 16.3263 28.6488C15.9787 28.6627 15.6334 28.5869 15.324 28.4286C15.0558 28.2738 14.849 28.0321 14.738 27.7437C14.5971 27.3739 14.5305 26.98 14.5423 26.5845V21.3568L12.8096 21.6106V26.9226C12.7889 27.564 12.8988 28.2029 13.1326 28.8008C13.3203 29.267 13.6659 29.653 14.1095 29.892C14.6134 30.1384 15.1704 30.2574 15.7315 30.2386C16.2 30.2417 16.6655 30.1646 17.1077 30.0105C17.5439 29.8551 17.9557 29.6385 18.3305 29.3673C18.4339 29.2931 18.5361 29.2144 18.638 29.1327L18.6363 29.8658C18.6363 30.7117 18.4381 31.3546 18.0417 31.7945C17.6454 32.2344 16.9716 32.4543 16.0203 32.4543C15.7596 32.4543 15.4935 32.4429 15.2218 32.4202C14.9506 32.3978 14.6811 32.3584 14.4149 32.302C14.1488 32.2456 13.8797 32.1751 13.6077 32.0905C13.3357 32.0059 13.064 31.9073 12.7924 31.7945L12.9795 33.3002C13.206 33.39 13.4437 33.4718 13.6927 33.5455C13.9416 33.6192 14.1964 33.6812 14.4571 33.7316C14.7176 33.7824 14.9894 33.8218 15.2725 33.85C15.5556 33.8782 15.8445 33.8922 16.1392 33.892C16.7537 33.9024 17.3654 33.8081 17.948 33.6132C18.4411 33.4468 18.8949 33.1819 19.2815 32.8347C19.6426 32.5038 19.9244 32.0963 20.1057 31.6422C20.2978 31.1518 20.393 30.629 20.386 30.1027L20.3687 21.3557L18.6524 21.6112Z"/>
<path d="M29.5578 21.6955C29.0587 21.443 28.5035 21.3208 27.944 21.3405C27.4454 21.3404 26.9497 21.4174 26.4748 21.5686C25.9922 21.7214 25.5323 21.9377 25.1071 22.2118C24.9791 22.2938 24.8554 22.381 24.7334 22.4737V17.3817L23.0006 17.6354V30.1548H24.7334V23.6538C24.8676 23.5805 25.0052 23.5105 25.1493 23.4468C25.3897 23.3411 25.6366 23.2507 25.8885 23.1761C26.1311 23.1043 26.3778 23.0478 26.6275 23.0069C26.8605 22.9683 27.0962 22.9485 27.3324 22.9477C27.604 22.942 27.8745 22.985 28.1308 23.0746C28.347 23.1524 28.5399 23.2833 28.6917 23.4552C28.8476 23.6419 28.9578 23.8619 29.0139 24.0981C29.0868 24.397 29.1212 24.7039 29.1164 25.0114V30.1546H30.8489V24.6562C30.8715 24.0148 30.7615 23.3756 30.5258 22.7782C30.334 22.3195 29.9931 21.9382 29.5578 21.6955Z"/>
<path d="M40.0053 22.6178C39.6791 22.1969 39.2488 21.8674 38.7565 21.6617C38.2096 21.4396 37.623 21.3303 37.0325 21.3405C36.4374 21.3304 35.847 21.4457 35.2998 21.6789C34.8021 21.8958 34.3584 22.2192 34.0003 22.626C33.6313 23.0536 33.3538 23.5516 33.1846 24.0897C32.991 24.7054 32.8965 25.3478 32.9046 25.993C32.8805 26.8082 33.0521 27.6173 33.4054 28.3531C33.7283 28.9906 34.2498 29.507 34.8918 29.825C35.6452 30.1784 36.4719 30.3495 37.3043 30.3241C37.7047 30.3273 38.1049 30.3019 38.5016 30.2479C38.8333 30.2003 39.1602 30.1238 39.4785 30.0195C39.7941 29.9139 40.1009 29.7838 40.396 29.6304L40.5147 28.3277C40.2995 28.4066 40.0815 28.4856 39.8606 28.5645C39.6398 28.6435 39.4105 28.714 39.1727 28.776C38.9328 28.8386 38.6886 28.8838 38.4422 28.9111C38.194 28.9395 37.9445 28.9537 37.6948 28.9537C37.2488 28.9608 36.8037 28.9125 36.3698 28.8099C36.0197 28.7264 35.6958 28.5579 35.4272 28.3192C35.1557 28.0618 34.9566 27.7381 34.8496 27.3803C34.7387 27.0179 34.6763 26.6424 34.6642 26.2637H40.8034C40.887 25.5639 40.8554 24.8552 40.71 24.1656C40.5905 23.6049 40.3501 23.0767 40.0053 22.6178ZM35.7245 23.0236C36.1231 22.7827 36.5833 22.6623 37.0492 22.677C37.5158 22.6538 37.9766 22.7879 38.3572 23.0577C38.6956 23.3266 38.9371 23.6977 39.0453 24.1151C39.13 24.4238 39.1717 24.7425 39.1693 25.0625H34.7016C34.7331 24.7251 34.8055 24.3928 34.9173 24.0728C35.0624 23.6437 35.3463 23.2747 35.7245 23.0236Z"/>
<path d="M47.4033 28.7926L47.1145 28.8437C47.0218 28.8601 46.9282 28.8714 46.8342 28.8775C46.7434 28.8834 46.6584 28.8857 46.5794 28.8857C46.319 28.8929 46.0605 28.8408 45.8235 28.7334C45.6195 28.6374 45.4505 28.4809 45.3393 28.2854C45.2203 28.0647 45.1617 27.8167 45.1694 27.5664V22.88H47.5646L47.7515 21.5266H45.1694V18.8532L43.4368 19.4626V21.5266H42.1287L41.9416 22.88H43.4368V27.9216C43.429 28.2578 43.4808 28.5927 43.5897 28.911C43.677 29.1631 43.8126 29.3959 43.9888 29.5965C44.1504 29.7752 44.347 29.9191 44.5664 30.0195C44.7911 30.122 45.0278 30.1958 45.2711 30.2391C45.5121 30.2835 45.7565 30.3061 46.0015 30.3068C46.1827 30.3068 46.3612 30.3012 46.5369 30.2902C46.7127 30.2791 46.874 30.2621 47.0211 30.2391C47.168 30.2166 47.307 30.1912 47.4372 30.1633C47.5675 30.1354 47.6777 30.1097 47.7685 30.0869L47.8704 28.6829C47.8043 28.7084 47.7361 28.7282 47.6666 28.7421C47.587 28.7588 47.4993 28.776 47.4033 28.7926Z"/>
<path d="M55.9735 22.6178C55.6473 22.1969 55.2171 21.8675 54.7248 21.6617C54.1778 21.4395 53.5913 21.3303 53.0007 21.3405C52.4056 21.3305 51.8151 21.4458 51.2679 21.6789C50.7703 21.8959 50.3266 22.2193 49.9684 22.626C49.5995 23.0536 49.3221 23.5515 49.153 24.0894C48.9594 24.7052 48.8649 25.3475 48.873 25.9927C48.849 26.8079 49.0207 27.617 49.3738 28.3528C49.6967 28.9904 50.2182 29.5068 50.8602 29.8247C51.6137 30.1781 52.4403 30.3491 53.2727 30.3238C53.6732 30.3271 54.0733 30.3016 54.4701 30.2476C54.8018 30.1999 55.1287 30.1235 55.4471 30.0192C55.7627 29.9137 56.0694 29.7836 56.3644 29.6301L56.4834 28.3274C56.268 28.4064 56.0499 28.4853 55.8291 28.5643C55.6082 28.6432 55.3789 28.7137 55.1413 28.7757C54.9014 28.8384 54.6573 28.8835 54.4109 28.9108C54.1628 28.9392 53.9132 28.9534 53.6634 28.9534C53.2174 28.9606 52.7722 28.9123 52.3381 28.8096C51.9881 28.726 51.6643 28.5575 51.3956 28.319C51.1242 28.0614 50.9252 27.7378 50.8181 27.38C50.7071 27.0176 50.6448 26.6421 50.6329 26.2634H56.7718C56.8555 25.5636 56.824 24.8549 56.6784 24.1653C56.5588 23.6047 56.3183 23.0767 55.9735 22.6178ZM51.6926 23.0236C52.0912 22.7826 52.5516 22.6623 53.0176 22.677C53.4842 22.6538 53.945 22.788 54.3257 23.0577C54.6639 23.3266 54.9053 23.6977 55.0134 24.1151C55.0984 24.4237 55.1401 24.7425 55.1374 25.0625H50.67C50.7014 24.7252 50.7738 24.3928 50.8854 24.0728C51.0306 23.6438 51.3145 23.2748 51.6926 23.0236Z"/>
<path d="M62.445 21.4671C62.1274 21.5519 61.8241 21.683 61.545 21.8562C61.2551 22.0363 60.9871 22.2492 60.7463 22.4907C60.7064 22.5304 60.6673 22.5752 60.6274 22.6173V21.3569L58.8947 21.6106V30.1543H60.6274V23.7629C60.7563 23.6734 60.8896 23.5904 61.0269 23.5142C61.1968 23.421 61.3728 23.339 61.5535 23.2689C61.7287 23.2008 61.907 23.1416 62.0886 23.0913C62.2749 23.0395 62.4651 23.0027 62.6574 22.9813C62.8633 22.9586 63.0708 22.9528 63.2777 22.9641L63.4815 21.374C63.1332 21.3491 62.7832 21.3806 62.445 21.4671Z"/>
</svg>

<svg xmlns="http://www.w3.org/2000/svg" fill="currentColor" viewBox="0 0 64 35"><path d="M0 13V1.001h3.937V13H0ZM9.294 2.91 11.558 13H7.25L4.545 1.001h2.417a2.276 2.276 0 0 1 1.513.55c.42.345.71.826.819 1.36ZM12.149 13V1.001h3.938V13h-3.938Zm6.912-7.436a2.382 2.382 0 0 1-2.4-2.4 2.301 2.301 0 0 1 .321-1.2 2.41 2.41 0 0 1 3.278-.861c.356.209.653.506.862.861.215.363.326.778.321 1.2a2.35 2.35 0 0 1-.321 1.209 2.4 2.4 0 0 1-.862.87 2.302 2.302 0 0 1-1.2.321ZM22.05 13V1.001h3.938V13h-3.937Zm8.923-5.442c.01.012.095.15.253.414.158.265.364.603.617 1.014a314.643 314.643 0 0 1 1.597 2.62c.247.411.529.876.845 1.394H29.96c-.27-.44-.516-.836-.736-1.191-.22-.355-.453-.738-.7-1.15-.248-.41-.493-.81-.736-1.2-.242-.389-.45-.73-.625-1.022a17.98 17.98 0 0 0-.363-.591A1.747 1.747 0 0 1 26.513 7c.016-.29.11-.57.27-.812.067-.113.191-.313.371-.6s.392-.628.634-1.022c.242-.395.488-.797.736-1.209a516 516 0 0 1 .7-1.157L29.96 1h4.326L30.94 6.46a1.08 1.08 0 0 0-.17.54c.012.202.082.396.203.558ZM8.596 27.282l-7.22-9.14H0v12.013h1.597V21.01l7.237 9.144h1.376V18.143H8.596v9.139ZM18.652 21.611l-.013 6.336a8.104 8.104 0 0 1-.368.203c-.206.106-.42.199-.637.279-.206.077-.42.133-.637.17a4.195 4.195 0 0 1-.67.05 2.023 2.023 0 0 1-1.003-.22 1.351 1.351 0 0 1-.586-.685 3.004 3.004 0 0 1-.196-1.16v-5.227l-1.732.254v5.312c-.021.641.089 1.28.323 1.878.187.466.533.852.977 1.091a3.43 3.43 0 0 0 1.622.347 4.1 4.1 0 0 0 1.376-.229 4.88 4.88 0 0 0 1.223-.643c.103-.074.205-.153.307-.234l-.002.733c0 .846-.198 1.489-.594 1.928-.397.44-1.07.66-2.022.66a9.59 9.59 0 0 1-.798-.034 6.457 6.457 0 0 1-.807-.118 9.005 9.005 0 0 1-1.623-.508l.188 1.506a8.413 8.413 0 0 0 2.293.55c.283.028.572.042.866.042a5.413 5.413 0 0 0 1.809-.279 3.827 3.827 0 0 0 1.334-.778c.36-.331.642-.739.824-1.193.192-.49.287-1.013.28-1.54l-.017-8.746-1.717.255ZM29.558 21.695a3.316 3.316 0 0 0-1.614-.355 4.84 4.84 0 0 0-1.47.229 5.7 5.7 0 0 0-1.74.905v-5.092L23 17.635v12.52h1.732v-6.501a5.534 5.534 0 0 1 1.155-.478c.243-.072.49-.128.74-.17.232-.038.468-.058.704-.058.272-.006.543.037.799.127.216.077.409.208.56.38.157.187.267.407.323.643.073.299.107.606.102.913v5.144h1.733v-5.499a4.669 4.669 0 0 0-.323-1.878 2.221 2.221 0 0 0-.968-1.082ZM40.005 22.618a3.084 3.084 0 0 0-1.248-.956 4.381 4.381 0 0 0-1.724-.322 4.236 4.236 0 0 0-1.733.339c-.498.217-.942.54-1.3.947a4.142 4.142 0 0 0-.815 1.464 6.09 6.09 0 0 0-.28 1.903 5.103 5.103 0 0 0 .5 2.36 3.315 3.315 0 0 0 1.487 1.472 5.3 5.3 0 0 0 2.412.5c.4.002.8-.023 1.198-.077a5.77 5.77 0 0 0 1.894-.618l.119-1.302c-.215.079-.434.158-.654.236-.221.08-.45.15-.688.212-.24.063-.484.108-.73.135a6.574 6.574 0 0 1-.748.043 5.386 5.386 0 0 1-1.325-.144 2.18 2.18 0 0 1-.943-.49 2.138 2.138 0 0 1-.577-.94 4.284 4.284 0 0 1-.186-1.116h6.14c.083-.7.051-1.409-.094-2.098a3.946 3.946 0 0 0-.705-1.548Zm-4.28.406c.398-.241.858-.362 1.324-.347.467-.023.928.11 1.308.38.339.27.58.64.688 1.058.085.309.127.628.124.948h-4.467c.031-.338.104-.67.215-.99.145-.43.43-.798.807-1.05ZM47.403 28.793l-.288.05a2.561 2.561 0 0 1-.28.035c-.092.005-.177.008-.256.008a1.716 1.716 0 0 1-.755-.153 1.092 1.092 0 0 1-.485-.448 1.423 1.423 0 0 1-.17-.719V22.88h2.396l.187-1.353h-2.583v-2.674l-1.732.61v2.064h-1.308l-.187 1.353h1.495v5.042c-.008.336.044.67.153.989.087.252.223.485.399.685.161.18.358.323.577.424.225.102.462.176.705.22.241.044.486.066.73.067.182 0 .36-.006.536-.017.176-.01.337-.028.484-.05a7.176 7.176 0 0 0 .748-.153l.101-1.404a1.244 1.244 0 0 1-.203.06c-.08.016-.168.033-.264.05ZM55.974 22.618a3.085 3.085 0 0 0-1.25-.956 4.38 4.38 0 0 0-1.723-.322 4.24 4.24 0 0 0-1.733.339c-.498.217-.941.54-1.3.947a4.142 4.142 0 0 0-.815 1.463 6.09 6.09 0 0 0-.28 1.904 5.107 5.107 0 0 0 .5 2.36 3.314 3.314 0 0 0 1.487 1.472c.754.353 1.58.524 2.413.499.4.003.8-.022 1.197-.076a5.782 5.782 0 0 0 1.894-.618l.12-1.303c-.216.08-.434.158-.655.237-.22.08-.45.15-.688.212-.24.062-.484.108-.73.135a6.573 6.573 0 0 1-.748.042 5.38 5.38 0 0 1-1.325-.143 2.184 2.184 0 0 1-.942-.491 2.141 2.141 0 0 1-.578-.939 4.27 4.27 0 0 1-.185-1.117h6.139c.084-.7.052-1.408-.094-2.098a3.947 3.947 0 0 0-.704-1.547Zm-4.281.406a2.414 2.414 0 0 1 1.325-.347c.466-.023.927.111 1.308.38.338.27.58.64.687 1.058.085.309.127.628.124.948H50.67c.031-.338.104-.67.215-.99.146-.43.43-.798.808-1.05ZM62.445 21.467c-.318.085-.62.216-.9.39-.29.18-.558.392-.799.634-.04.04-.079.084-.119.126v-1.26l-1.732.254v8.543h1.732v-6.391a4.416 4.416 0 0 1 .926-.494c.176-.068.354-.127.536-.178a3.616 3.616 0 0 1 1.189-.127l.203-1.59a3.248 3.248 0 0 0-1.036.093Z"/></svg>
